assets/skin-mi-wbc/images/next.svg

<?xml version="1.0" encoding="utf-8"?>
<!-- Generator: Adobe Illustrator 21.0.0, SVG Export Plug-In . SVG Version: 6.00 Build 0)  -->
<svg version="1.1" id="Layer_1" xmlns="http://www.w3.org/2000/svg" xmlns:xlink="http://www.w3.org/1999/xlink" x="0px" y="0px"
	 viewBox="0 0 32 32" style="enable-background:new 0 0 32 32;" xml:space="preserve">
<style type="text/css">
	.st0{fill:#FFFFFF;}
</style>
<g id="Rectangle_2_copy_3_1_">
	<g>
		<path class="st0" d="M24.2,5.4h-2.4c-1.3,0-2.4,1.1-2.4,2.4v16.5c0,1.3,1.1,2.4,2.4,2.4h2.4c1.3,0,2.4-1.1,2.4-2.4V7.7
			C26.5,6.4,25.5,5.4,24.2,5.4z M24.2,24.3h-2.4V7.7h2.4V24.3z"/>
	</g>
</g>
<g id="Shape_3_1_">
	<g>
		<path class="st0" d="M21.3,14.9L8.5,5.5C8,5.4,7.5,5.3,7.2,5.5C6.7,5.7,6.5,6.2,6.5,6.6v18.8c0,0.5,0.2,0.9,0.7,1.1
			c0.1,0.2,0.4,0.2,0.5,0.2c0.2,0,0.5-0.1,0.7-0.2l12.9-9.4c0.4-0.2,0.5-0.6,0.5-1.1C21.7,15.4,21.6,15.2,21.3,14.9z M8.9,23V9
			l9.6,7L8.9,23z"/>
	</g>
</g>
</svg>

<?xml version="1.0" encoding="UTF-8" standalone="no"?>
<!DOCTYPE svg PUBLIC "-//W3C//DTD SVG 1.1//EN" "http://www.w3.org/Graphics/SVG/1.1/DTD/svg11.dtd">
<svg width="100%" height="100%" viewBox="0 0 32 32" version="1.1" xmlns="http://www.w3.org/2000/svg" xmlns:xlink="http://www.w3.org/1999/xlink" xml:space="preserve" xmlns:serif="http://www.serif.com/" style="fill-rule:evenodd;clip-rule:evenodd;stroke-linejoin:round;stroke-miterlimit:1.41421;">
    <path id="Rectangle_2_copy_3_1_" d="M24.2,5.4L21.8,5.4C20.5,5.4 19.4,6.5 19.4,7.8L19.4,24.3C19.4,25.6 20.5,26.7 21.8,26.7L24.2,26.7C25.5,26.7 26.6,25.6 26.6,24.3L26.6,7.7C26.5,6.4 25.5,5.4 24.2,5.4ZM24.2,24.3L21.8,24.3L21.8,7.7L24.2,7.7L24.2,24.3Z" style="fill:white;fill-rule:nonzero;stroke:black;stroke-opacity:0.541176;stroke-width:0.5px;"/>
    <path id="Shape_3_1_" d="M21.3,14.9L8.5,5.5C8,5.4 7.5,5.3 7.2,5.5C6.7,5.7 6.5,6.2 6.5,6.6L6.5,25.4C6.5,25.9 6.7,26.3 7.2,26.5C7.3,26.7 7.6,26.7 7.7,26.7C7.9,26.7 8.2,26.6 8.4,26.5L21.3,17.1C21.7,16.9 21.8,16.5 21.8,16C21.7,15.4 21.6,15.2 21.3,14.9ZM8.9,23L8.9,9L18.5,16L8.9,23Z" style="fill:white;fill-rule:nonzero;stroke:black;stroke-opacity:0.541176;stroke-width:0.5px;"/>
</svg>
